X: 6278
T: Carolan's Welcome
R: waltz
M: 3/4
K: Eminor
E2 GA B2|E2 GA B2|A>B AG FE|D/E/F D2 B,2|
G2 GF E2|A2 AG F2|GB B,2 ^E2|E4 GF|
E2 G>A B2|E2 GA BG|AB AG FE|D3 C B,2|
d2 dc B2|e2 ed BA|G/A/B AG FG|E4||
B2 ef g2|B2 ef g2|gf ed ef|g2 B2 B2|
c2 ec BA|B2 dB AG|A3 B d2|e4 e2|
ed Bd e2|dB AB d2|B>A GA B/A/G|A2 F2 D2|
G3 F E2|A2 AG F2|GB B,2 ^E2|E4||

